icons/svg/subway/subway_samara.svg

<?xml version="1.0" encoding="UTF-8" standalone="no"?>
<svg
   xmlns:dc="http://purl.org/dc/elements/1.1/"
   xmlns:cc="http://creativecommons.org/ns#"
   xmlns:rdf="http://www.w3.org/1999/02/22-rdf-syntax-ns#"
   xmlns:svg="http://www.w3.org/2000/svg"
   xmlns="http://www.w3.org/2000/svg"
   xmlns:sodipodi="http://sodipodi.sourceforge.net/DTD/sodipodi-0.dtd"
   xmlns:inkscape="http://www.inkscape.org/namespaces/inkscape"
   width="16"
   height="16"
   id="svg2"
   version="1.1"
   inkscape:version="0.91 r"
   sodipodi:docname="subway_samara.svg">
  <defs
     id="defs13" />
  <sodipodi:namedview
     pagecolor="#ffffff"
     bordercolor="#666666"
     borderopacity="1"
     objecttolerance="10"
     gridtolerance="10"
     guidetolerance="10"
     inkscape:pageopacity="0"
     inkscape:pageshadow="2"
     inkscape:window-width="1920"
     inkscape:window-height="1004"
     id="namedview11"
     showgrid="true"
     inkscape:zoom="52.082758"
     inkscape:cx="6.5096828"
     inkscape:cy="9.6567004"
     inkscape:window-x="1680"
     inkscape:window-y="0"
     inkscape:window-maximized="1"
     inkscape:current-layer="svg2"
     showguides="false">
    <sodipodi:guide
       position="0,0"
       orientation="0,580"
       id="guide2989" />
    <sodipodi:guide
       position="580,0"
       orientation="-580,0"
       id="guide2991" />
    <sodipodi:guide
       position="580,580"
       orientation="0,-580"
       id="guide2993" />
    <sodipodi:guide
       position="0,580"
       orientation="580,0"
       id="guide2995" />
    <sodipodi:guide
       position="0,0"
       orientation="0,580"
       id="guide2997" />
    <sodipodi:guide
       position="580,0"
       orientation="-580,0"
       id="guide2999" />
    <sodipodi:guide
       position="580,580"
       orientation="0,-580"
       id="guide3001" />
    <sodipodi:guide
       position="0,580"
       orientation="580,0"
       id="guide3003" />
    <inkscape:grid
       type="xygrid"
       id="grid3013"
       empspacing="5"
       visible="true"
       enabled="true"
       snapvisiblegridlinesonly="true" />
  </sodipodi:namedview>
  <metadata
     id="metadata2975">image/svg+xmlen<rdf:RDF>
  <cc:Work
     rdf:about="">
    <dc:format>image/svg+xml</dc:format>
    <dc:type
       rdf:resource="http://purl.org/dc/dcmitype/StillImage" />
    <dc:title />
  </cc:Work>
</rdf:RDF>
</metadata>
  <path
     sodipodi:type="inkscape:offset"
     inkscape:radius="0.62083739"
     inkscape:original="M 8 2.5449219 A 5.4557118 5.4557118 0 0 0 2.5449219 8 A 5.4557118 5.4557118 0 0 0 8 13.455078 A 5.4557118 5.4557118 0 0 0 13.455078 8 A 5.4557118 5.4557118 0 0 0 8 2.5449219 z "
     style="color:#000000;clip-rule:nonzero;display:inline;overflow:visible;visibility:visible;opacity:1;isolation:auto;mix-blend-mode:normal;color-interpolation:sRGB;color-interpolation-filters:linearRGB;solid-color:#000000;solid-opacity:1;fill:#fefefe;fill-opacity:1;fill-rule:nonzero;stroke-width:0.08543815;stroke-linecap:butt;stroke-linejoin:miter;stroke-miterlimit:4;stroke-dasharray:none;stroke-dashoffset:0;stroke-opacity:1;color-rendering:auto;image-rendering:auto;shape-rendering:auto;text-rendering:auto;enable-background:accumulate"
     id="path4255"
     d="M 8,1.9238281 C 6.4093984,1.9240129 4.8278502,2.5783998 3.703125,3.703125 2.5783998,4.8278502 1.9240129,6.4093984 1.9238281,8 1.9240129,9.5906016 2.5783998,11.17215 3.703125,12.296875 4.8278502,13.4216 6.4093984,14.075987 8,14.076172 9.5906016,14.075987 11.17215,13.4216 12.296875,12.296875 13.4216,11.17215 14.075987,9.5906016 14.076172,8 14.075987,6.4093984 13.4216,4.8278502 12.296875,3.703125 11.17215,2.5783998 9.5906016,1.9240129 8,1.9238281 Z"
     transform="matrix(0.72647433,0,0,0.72647433,2.1882053,2.1882053)" />
  <circle
     style="fill:#0b4372"
     cx="8"
     cy="8"
     r="3.9821386"
     id="circle3" />
  <path
     inkscape:connector-curvature="0"
     style="fill:none;stroke:#efe055;stroke-width:0.10189188;stroke-miterlimit:10"
     stroke-miterlimit="10"
     d="M 6.5371384,4.7619098 6.4384728,4.5856709 C 7.2402263,4.2159731 8.1731485,4.1211118 9.0883756,4.383891 c 0.1570146,0.045104 0.308903,0.09931 0.455287,0.1619402 l -0.078932,0.1742012"
     id="path5" />
  <path
     inkscape:connector-curvature="0"
     style="fill:none;stroke:#efe055;stroke-width:0.10189188;stroke-miterlimit:10"
     stroke-miterlimit="10"
     d="M 4.4967876,7.281696 4.2967738,7.2530645 C 4.4900627,6.3916025 4.9813174,5.5927702 5.7457442,5.0252664 5.876981,4.9279937 6.0124632,4.8402649 6.1510702,4.7619098 l 0.09031,0.1684953"
     id="path7" />
  <path
     inkscape:connector-curvature="0"
     style="fill:none;stroke:#efe055;stroke-width:0.10189188;stroke-miterlimit:10"
     stroke-miterlimit="10"
     d="m 5.3674536,10.41915 -0.1384371,0.1472 C 4.6350209,9.9132236 4.2636248,9.0522371 4.2385596,8.1002616 4.234178,7.9369287 4.2403187,7.7757358 4.2557796,7.6172599 l 0.1900623,0.02296"
     id="path9" />
  <path
     inkscape:connector-curvature="0"
     style="fill:none;stroke:#efe055;stroke-width:0.10189188;stroke-miterlimit:10"
     stroke-miterlimit="10"
     d="m 11.500938,7.2348258 0.199946,-0.028632 C 11.507663,6.3447321 11.016374,5.5458998 10.251913,4.9783962 10.120677,4.8811233 9.9852272,4.7933945 9.8465863,4.7150735 l -0.09031,0.1684952"
     id="path11" />
  <path
     inkscape:connector-curvature="0"
     style="fill:none;stroke:#efe055;stroke-width:0.10189188;stroke-miterlimit:10"
     stroke-miterlimit="10"
     d="m 10.630203,10.37228 0.138436,0.1472 c 0.594065,-0.6531274 0.965393,-1.5141129 0.990492,-2.4660889 0.0043,-0.1633326 -0.0017,-0.3245256 -0.01718,-0.4830014 l -0.190063,0.02296"
     id="path13" />
  <path
     inkscape:connector-curvature="0"
     style="fill:#f6e548"
     d="m 10.622527,10.812284 c -0.6876341,0.6446 -1.6055783,1.03298 -2.6225269,1.03298 -1.0146732,0 -1.9376098,-0.392964 -2.6247349,-1.035019 l 5.2472618,0.002"
     id="path15" />
  <path
     inkscape:connector-curvature="0"
     style="fill:#fd0402;stroke:#efe055;stroke-width:0.10189188;stroke-miterlimit:10"
     stroke-miterlimit="10"
     d="M 8.1007373,10.144823 9.2056185,7.8187342 C 9.3550266,8.8074932 9.5968837,9.518868 10.8796,9.4311388 L 9.5328616,5.4475742 8.1007034,7.9420233 6.6685791,5.4475742 5.32184,9.4311388 C 6.6046249,9.5188682 6.8464482,8.8075266 6.9958216,7.8187342 l 1.1049157,2.3260888 z"
     id="path17" />
</svg>

<svg width="16" height="16" viewBox="0 0 16 16" fill="none" xmlns="http://www.w3.org/2000/svg">
<path d="M8 3.58582C6.84447 3.58595 5.69551 4.06134 4.87843 4.87843C4.06134 5.69551 3.58595 6.84447 3.58582 8C3.58595 9.15553 4.06134 10.3045 4.87843 11.1216C5.69551 11.9387 6.84447 12.414 8 12.4142C9.15553 12.414 10.3045 11.9387 11.1216 11.1216C11.9387 10.3045 12.414 9.15553 12.4142 8C12.414 6.84447 11.9387 5.69551 11.1216 4.87843C10.3045 4.06134 9.15553 3.58595 8 3.58582Z" fill="#FEFEFE"/>
<path d="M8.00002 11.9821C10.1993 11.9821 11.9822 10.1993 11.9822 7.99999C11.9822 5.80072 10.1993 4.01785 8.00002 4.01785C5.80075 4.01785 4.01788 5.80072 4.01788 7.99999C4.01788 10.1993 5.80075 11.9821 8.00002 11.9821Z" fill="#0B4372"/>
<path d="M6.53714 4.7619L6.43848 4.58566C7.24023 4.21596 8.17315 4.1211 9.08838 4.38388C9.24539 4.42899 9.39728 4.48319 9.54367 4.54582L9.46473 4.72002" stroke="#EFE055" stroke-width="0.101892" stroke-miterlimit="10"/>
<path d="M4.49677 7.28169L4.29675 7.25306C4.49004 6.39159 4.9813 5.59276 5.74572 5.02526C5.87696 4.92799 6.01244 4.84026 6.15105 4.7619L6.24136 4.9304" stroke="#EFE055" stroke-width="0.101892" stroke-miterlimit="10"/>
<path d="M5.36746 10.4191L5.22902 10.5663C4.63502 9.91321 4.26363 9.05223 4.23856 8.10025C4.23418 7.93692 4.24032 7.77572 4.25578 7.61725L4.44584 7.64021" stroke="#EFE055" stroke-width="0.101892" stroke-miterlimit="10"/>
<path d="M11.5009 7.23484L11.7009 7.20621C11.5077 6.34475 11.0164 5.54591 10.2519 4.97841C10.1207 4.88114 9.98524 4.79341 9.8466 4.71509L9.75629 4.88358" stroke="#EFE055" stroke-width="0.101892" stroke-miterlimit="10"/>
<path d="M10.6302 10.3723L10.7686 10.5195C11.3627 9.86637 11.734 9.00538 11.7591 8.05341C11.7634 7.89007 11.7574 7.72888 11.7419 7.5704L11.5519 7.59336" stroke="#EFE055" stroke-width="0.101892" stroke-miterlimit="10"/>
<path d="M10.6225 10.8123C9.93487 11.4569 9.01693 11.8453 7.99998 11.8453C6.98531 11.8453 6.06237 11.4523 5.37524 10.8102L10.6225 10.8122" fill="#F6E548"/>
<path d="M8.10074 10.1448L9.20562 7.81873C9.35503 8.80749 9.59688 9.51886 10.8796 9.43114L9.53286 5.44757L8.1007 7.94202L6.66858 5.44757L5.32184 9.43114C6.60462 9.51887 6.84645 8.80752 6.99582 7.81873L8.10074 10.1448V10.1448Z" fill="#FD0402" stroke="#EFE055" stroke-width="0.101892" stroke-miterlimit="10"/>
</svg>
